X: 10114
T: WALT'S HORNPIPE
C: Bob McQuillen 22 Oct 93
B: Bob's Note Book 10 #114
%R: hornpipe, reel
Z: 2020 John Chambers <jc:trillian.mit.edu>
M: C
L: 1/8
K: D
FE \
| DFAF GBAG | FAdc d2cd | edfa gfed | cedB AGFE |\
| DFAF GBAG | FAdc dAde | fafd Aceg | f2d2 d2  :|
|: cd \
| ecAd fdAf | gefd e2cd | edfa gfed | c2AB A2de |\
| fdAF GBAG | FAdf edcd | Adfa bgec | d2f2 d2  :|
%%begintext align
%% Walt Michael, from Cold Spring,
%% NY, had a great deal to do with getting the Shetland fiddlers over here
%% last summer, and I've been grateful to him ever since. We were able
%% to listen to some of the best fiddle music I've ever heard, and we've got
%% Walt to thank for it. When he and his group (Walt Michael and Company)
%% joined in with the Shetlanders, the music was out of this world. Thanks,
%% Walt, for giving us all such a wonderful treat --
%%endtext

%%sep 1 1 500

%%sep 1 1 500

